src/icons/add-receipt.svg

<?xml version="1.0" encoding="UTF-8"?>
<svg xmlns="http://www.w3.org/2000/svg" xmlns:xlink="http://www.w3.org/1999/xlink" width="32" height="32" viewBox="0 0 32 32" version="1.1">
<g id="surface1">
<path style=" stroke:none;fill-rule:nonzero;fill:rgb(0%,0%,0%);fill-opacity:1;" d="M 7.039062 1.28125 C 6.941406 1.28125 6.84375 1.304688 6.753906 1.347656 L 5.761719 1.84375 L 4.765625 1.347656 C 4.566406 1.25 4.332031 1.257812 4.144531 1.375 C 3.953125 1.492188 3.839844 1.699219 3.839844 1.921875 L 3.839844 30.078125 C 3.839844 30.433594 4.125 30.71875 4.480469 30.71875 L 21.773438 30.71875 C 24.277344 32.585938 27.855469 32.394531 30.125 30.125 C 32.613281 27.636719 32.613281 23.5625 30.125 21.074219 C 29.558594 20.511719 28.894531 20.058594 28.160156 19.742188 L 28.160156 1.921875 C 28.160156 1.699219 28.046875 1.492188 27.855469 1.375 C 27.667969 1.257812 27.433594 1.25 27.234375 1.347656 L 26.238281 1.84375 L 25.246094 1.347656 C 25.066406 1.257812 24.851562 1.257812 24.671875 1.347656 L 23.679688 1.84375 L 22.6875 1.347656 C 22.507812 1.257812 22.292969 1.257812 22.113281 1.347656 L 21.121094 1.84375 L 20.125 1.347656 C 19.945312 1.257812 19.734375 1.257812 19.554688 1.347656 L 18.558594 1.84375 L 17.566406 1.347656 C 17.386719 1.257812 17.171875 1.257812 16.992188 1.347656 L 16 1.84375 L 15.007812 1.347656 C 14.828125 1.257812 14.613281 1.257812 14.433594 1.347656 L 13.441406 1.84375 L 12.445312 1.347656 C 12.265625 1.257812 12.054688 1.257812 11.875 1.347656 L 10.878906 1.84375 L 9.886719 1.347656 C 9.707031 1.257812 9.492188 1.257812 9.3125 1.347656 L 8.320312 1.84375 L 7.328125 1.347656 C 7.238281 1.304688 7.140625 1.28125 7.039062 1.28125 M 8.320312 7.039062 L 17.921875 7.039062 C 18.273438 7.039062 18.558594 7.324219 18.558594 7.679688 C 18.558594 7.847656 18.492188 8.011719 18.375 8.132812 C 18.253906 8.253906 18.089844 8.320312 17.921875 8.320312 L 8.320312 8.320312 C 8.148438 8.320312 7.988281 8.253906 7.867188 8.132812 C 7.746094 8.015625 7.679688 7.851562 7.679688 7.679688 C 7.679688 7.324219 7.964844 7.039062 8.320312 7.039062 M 21.761719 7.039062 L 23.679688 7.039062 C 24.035156 7.039062 24.320312 7.324219 24.320312 7.679688 C 24.320312 7.851562 24.253906 8.015625 24.132812 8.136719 C 24.011719 8.253906 23.851562 8.324219 23.679688 8.320312 L 21.761719 8.320312 C 21.59375 8.324219 21.429688 8.253906 21.308594 8.136719 C 21.1875 8.015625 21.121094 7.851562 21.121094 7.683594 C 21.121094 7.324219 21.40625 7.042969 21.761719 7.042969 M 8.320312 10.878906 L 15.359375 10.878906 C 15.703125 10.894531 15.976562 11.175781 15.976562 11.519531 C 15.976562 11.863281 15.703125 12.148438 15.359375 12.160156 L 8.320312 12.160156 C 7.976562 12.148438 7.703125 11.863281 7.703125 11.519531 C 7.703125 11.175781 7.976562 10.894531 8.320312 10.878906 M 21.761719 10.878906 L 23.679688 10.878906 C 24.023438 10.894531 24.296875 11.175781 24.296875 11.519531 C 24.296875 11.863281 24.023438 12.148438 23.679688 12.160156 L 21.761719 12.160156 C 21.417969 12.148438 21.144531 11.863281 21.144531 11.519531 C 21.144531 11.175781 21.417969 10.894531 21.761719 10.878906 M 8.320312 14.71875 L 17.921875 14.71875 C 18.277344 14.71875 18.5625 15.003906 18.5625 15.359375 C 18.5625 15.714844 18.277344 16 17.921875 16 L 8.320312 16 C 7.976562 15.988281 7.703125 15.703125 7.703125 15.359375 C 7.703125 15.015625 7.976562 14.734375 8.320312 14.71875 M 21.761719 14.71875 L 23.679688 14.71875 C 24.023438 14.734375 24.296875 15.015625 24.296875 15.359375 C 24.296875 15.703125 24.023438 15.988281 23.679688 16 L 21.761719 16 C 21.417969 15.988281 21.144531 15.703125 21.144531 15.359375 C 21.144531 15.015625 21.417969 14.734375 21.761719 14.71875 M 8.320312 18.558594 L 15.359375 18.558594 C 15.699219 18.578125 15.964844 18.859375 15.964844 19.199219 C 15.964844 19.539062 15.699219 19.820312 15.359375 19.839844 L 8.320312 19.839844 C 7.976562 19.824219 7.703125 19.542969 7.703125 19.199219 C 7.703125 18.855469 7.976562 18.570312 8.320312 18.558594 M 21.761719 18.558594 L 23.679688 18.558594 C 24.035156 18.558594 24.320312 18.84375 24.320312 19.199219 C 24.320312 19.25 24.300781 19.296875 24.292969 19.34375 C 23.789062 19.449219 23.296875 19.617188 22.832031 19.839844 L 21.761719 19.839844 C 21.417969 19.824219 21.144531 19.542969 21.144531 19.199219 C 21.144531 18.855469 21.417969 18.570312 21.761719 18.558594 M 25.601562 20.484375 C 26.957031 20.480469 28.261719 21.019531 29.21875 21.980469 C 31.210938 23.972656 31.210938 27.230469 29.21875 29.21875 C 27.21875 31.210938 23.980469 31.210938 21.980469 29.21875 C 19.988281 27.214844 19.988281 23.980469 21.980469 21.980469 C 22.941406 21.019531 24.242188 20.480469 25.601562 20.484375 M 25.601562 21.796875 C 25.433594 21.792969 25.265625 21.859375 25.148438 21.976562 C 25.027344 22.097656 24.960938 22.261719 24.964844 22.433594 L 24.964844 24.964844 L 22.433594 24.964844 C 22.261719 24.957031 22.097656 25.023438 21.980469 25.144531 C 21.859375 25.265625 21.792969 25.429688 21.796875 25.601562 C 21.792969 25.769531 21.859375 25.933594 21.980469 26.054688 C 22.101562 26.171875 22.265625 26.238281 22.433594 26.234375 L 24.964844 26.234375 L 24.964844 28.765625 C 24.964844 29.128906 25.238281 29.402344 25.601562 29.402344 C 25.78125 29.402344 25.960938 29.308594 26.050781 29.21875 C 26.167969 29.09375 26.230469 28.933594 26.234375 28.765625 L 26.234375 26.234375 L 28.765625 26.234375 C 28.949219 26.234375 29.128906 26.144531 29.21875 26.050781 C 29.335938 25.929688 29.398438 25.769531 29.402344 25.601562 C 29.40625 25.429688 29.339844 25.265625 29.21875 25.144531 C 29.101562 25.027344 28.9375 24.960938 28.765625 24.964844 L 26.234375 24.964844 L 26.234375 22.433594 C 26.238281 22.261719 26.171875 22.101562 26.054688 21.980469 C 25.933594 21.859375 25.769531 21.792969 25.601562 21.796875 M 8.320312 22.398438 C 8.558594 22.382812 8.78125 22.503906 8.90625 22.707031 C 9.027344 22.910156 9.027344 23.164062 8.90625 23.367188 C 8.78125 23.570312 8.558594 23.691406 8.320312 23.675781 C 7.980469 23.65625 7.714844 23.378906 7.714844 23.035156 C 7.714844 22.695312 7.980469 22.414062 8.320312 22.398438 M 10.238281 22.398438 C 10.59375 22.398438 10.878906 22.683594 10.878906 23.039062 C 10.878906 23.390625 10.59375 23.679688 10.238281 23.679688 C 9.882812 23.679688 9.597656 23.390625 9.597656 23.039062 C 9.597656 22.683594 9.882812 22.398438 10.238281 22.398438 M 12.160156 22.398438 C 12.398438 22.382812 12.621094 22.503906 12.746094 22.707031 C 12.867188 22.910156 12.867188 23.164062 12.746094 23.367188 C 12.621094 23.570312 12.398438 23.691406 12.160156 23.679688 C 11.820312 23.660156 11.554688 23.378906 11.554688 23.039062 C 11.554688 22.699219 11.820312 22.417969 12.160156 22.398438 M 14.078125 22.398438 C 14.433594 22.398438 14.71875 22.683594 14.71875 23.039062 C 14.71875 23.394531 14.433594 23.679688 14.078125 23.679688 C 13.722656 23.679688 13.4375 23.394531 13.4375 23.039062 C 13.4375 22.6875 13.722656 22.398438 14.078125 22.398438 M 16 22.398438 C 16.238281 22.386719 16.460938 22.503906 16.585938 22.707031 C 16.707031 22.910156 16.707031 23.167969 16.585938 23.371094 C 16.460938 23.574219 16.238281 23.691406 16 23.679688 C 15.660156 23.660156 15.394531 23.378906 15.394531 23.039062 C 15.394531 22.699219 15.660156 22.417969 16 22.398438 M 17.921875 22.398438 C 18.277344 22.398438 18.5625 22.6875 18.5625 23.039062 C 18.5625 23.394531 18.277344 23.679688 17.921875 23.679688 C 17.578125 23.667969 17.304688 23.382812 17.304688 23.039062 C 17.304688 22.695312 17.578125 22.414062 17.921875 22.398438 M 17.921875 22.398438 "/>
</g>
</svg>

<svg role="img" viewBox="0 0 32 32" xmlns="http://www.w3.org/2000/svg"><path d="M7.04 1.281a.611.611 0 0 0-.286.067l-.992.496-.996-.496a.64.64 0 0 0-.926.574v28.156c0 .356.285.64.64.64h17.293c2.504 1.868 6.082 1.677 8.352-.593 2.488-2.488 2.488-6.562 0-9.05a6.366 6.366 0 0 0-1.965-1.333V1.922a.64.64 0 0 0-.926-.574l-.996.496-.992-.496a.645.645 0 0 0-.574 0l-.992.496-.992-.496a.645.645 0 0 0-.575 0l-.992.496-.996-.496a.637.637 0 0 0-.57 0l-.996.496-.993-.496a.645.645 0 0 0-.574 0L16 1.844l-.992-.496a.645.645 0 0 0-.574 0l-.993.496-.996-.496a.637.637 0 0 0-.57 0l-.996.496-.992-.496a.645.645 0 0 0-.575 0l-.992.496-.992-.496a.627.627 0 0 0-.289-.067M8.32 7.04h9.602c.351 0 .637.285.637.64a.638.638 0 0 1-.637.641H8.32a.639.639 0 0 1-.64-.64c0-.356.285-.64.64-.64m13.442 0h1.918c.355 0 .64.285.64.64a.638.638 0 0 1-.64.641h-1.918a.639.639 0 0 1-.64-.64c0-.356.284-.64.64-.64M8.32 10.88h7.04a.641.641 0 0 1 0 1.281H8.32a.641.641 0 0 1 0-1.281m13.442 0h1.918a.641.641 0 0 1 0 1.281h-1.918a.641.641 0 0 1 0-1.281M8.32 14.719h9.602a.64.64 0 0 1 0 1.281H8.32a.641.641 0 0 1 0-1.281m13.442 0h1.918a.641.641 0 0 1 0 1.281h-1.918a.641.641 0 0 1 0-1.281M8.32 18.559h7.04a.641.641 0 0 1 0 1.28H8.32a.641.641 0 0 1 0-1.281m13.442 0h1.918a.64.64 0 0 1 .64.64c0 .051-.02.098-.027.145a6.513 6.513 0 0 0-1.461.496h-1.07a.641.641 0 0 1 0-1.281m3.84 1.925a5.1 5.1 0 0 1 3.617 1.496c1.992 1.993 1.992 5.25 0 7.239a5.13 5.13 0 0 1-7.239 0 5.13 5.13 0 0 1 0-7.239 5.107 5.107 0 0 1 3.622-1.496m0 1.313a.622.622 0 0 0-.637.637v2.53h-2.531a.622.622 0 0 0-.637.638.62.62 0 0 0 .637.632h2.53v2.532c0 .363.274.636.638.636.18 0 .359-.093.449-.183a.672.672 0 0 0 .183-.453v-2.532h2.532c.183 0 .363-.09.453-.183a.67.67 0 0 0 .183-.45.622.622 0 0 0-.636-.636h-2.532v-2.531a.621.621 0 0 0-.632-.637m-17.282.601a.641.641 0 1 1 0 1.28.641.641 0 0 1 0-1.28m1.918 0a.641.641 0 0 1 0 1.282.64.64 0 0 1 0-1.281m1.922 0a.641.641 0 1 1 0 1.28.641.641 0 0 1 0-1.28m1.918 0a.641.641 0 0 1 0 1.282.64.64 0 0 1 0-1.281m1.922 0a.641.641 0 1 1 0 1.28.641.641 0 0 1 0-1.28m1.922 0a.64.64 0 0 1 0 1.282.641.641 0 0 1 0-1.281m0 0" style="stroke:none;fill-rule:nonzero;fill:rgb(0%,0%,0%);fill-opacity:1"/></svg>
